packages/core/src/svgs/tokens/mono/VOICE.svg

<svg width="24" height="24" viewBox="0 0 24 24" fill="none" xmlns="http://www.w3.org/2000/svg">
<path fill-rule="evenodd" clip-rule="evenodd" d="M12 21.4117C17.2647 21.4117 21.4117 17.2647 21.4117 12C21.4117 6.73529 17.2647 2.58823 12 2.58823C6.73529 2.58823 2.58823 6.73529 2.58823 12C2.58823 17.2647 6.73529 21.4117 12 21.4117ZM12 22C14.6522 22 17.1957 20.9464 19.071 19.071C20.9464 17.1957 22 14.6522 22 12C22 9.34785 20.9464 6.80429 19.071 4.92892C17.1957 3.05357 14.6522 2 12 2C9.34785 2 6.80429 3.05357 4.92892 4.92892C3.05357 6.80429 2 9.34785 2 12C2 14.6522 3.05357 17.1957 4.92892 19.071C6.80429 20.9464 9.34785 22 12 22Z" fill="white"/>
<path d="M11.9001 10.8234V13.7646H12.5883V10.8234H11.9001ZM11.9413 10.3233C12.0237 10.3999 12.1296 10.4411 12.2589 10.4411C12.3884 10.4411 12.4943 10.3999 12.5708 10.3233C12.6088 10.2846 12.6388 10.2385 12.659 10.1882C12.6792 10.1376 12.6892 10.0837 12.6884 10.0293C12.6907 9.97815 12.6813 9.92723 12.6609 9.88029C12.6405 9.83349 12.6097 9.7919 12.5708 9.75868C12.4857 9.68182 12.3735 9.6416 12.2589 9.64696C12.1296 9.64696 12.0237 9.68813 11.9413 9.76459C11.9032 9.79972 11.873 9.84241 11.8526 9.89017C11.8325 9.9378 11.8226 9.98927 11.8237 10.041C11.8237 10.1529 11.8649 10.2469 11.9413 10.3233ZM14.6119 13.7646C14.3061 13.7646 14.0354 13.7057 13.7943 13.5763C13.5652 13.4504 13.3745 13.2646 13.243 13.0387C13.1114 12.8129 13.0437 12.5554 13.0472 12.2941C13.0418 12.0322 13.1087 11.774 13.2404 11.5478C13.3722 11.3215 13.5638 11.136 13.7943 11.0117C14.0295 10.8882 14.3061 10.8234 14.6119 10.8234C14.8884 10.8234 15.1413 10.8823 15.3531 10.9999C15.5648 11.1057 15.7295 11.2704 15.8413 11.4881L15.3237 11.794C15.2496 11.6704 15.1443 11.5682 15.0183 11.4981C14.8924 11.428 14.7502 11.392 14.606 11.3939C14.4355 11.3939 14.2884 11.4293 14.153 11.4999C14.0178 11.5704 13.9178 11.6764 13.8413 11.8116C13.7649 11.9469 13.7237 12.1057 13.7237 12.2941C13.7237 12.4763 13.7649 12.641 13.8413 12.7764C13.9178 12.9058 14.0178 13.0116 14.153 13.0822C14.2841 13.1516 14.4299 13.189 14.5781 13.191C14.7265 13.1931 14.8731 13.1599 15.0061 13.094C15.1296 13.0293 15.2413 12.9293 15.3237 12.7939L15.8413 13.0881C15.7339 13.3026 15.5636 13.4791 15.3531 13.594C15.1355 13.7116 14.8884 13.7646 14.606 13.7646H14.6119ZM17.7001 13.7646C17.3766 13.7646 17.0943 13.7057 16.8531 13.5763C16.6179 13.447 16.4295 13.2705 16.2942 13.0469C16.1631 12.818 16.0962 12.5579 16.1001 12.2941C16.0885 12.0346 16.1495 11.7772 16.2762 11.5505C16.4031 11.3241 16.5907 11.1374 16.8178 11.0117C17.0531 10.8882 17.3061 10.8234 17.5943 10.8234C17.8766 10.8234 18.1237 10.8823 18.3473 11.0058C18.5648 11.1234 18.7413 11.2999 18.8649 11.5234C19.0293 11.8229 19.0913 12.1678 19.0414 12.5057H16.7767C16.7942 12.6058 16.8354 12.6999 16.8825 12.7823C16.9589 12.9117 17.0708 13.0175 17.2178 13.0881C17.359 13.1588 17.5237 13.194 17.7119 13.194C17.8766 13.194 18.0236 13.1704 18.1531 13.1176C18.2825 13.0705 18.4001 12.9882 18.5002 12.8822L18.859 13.294C18.7295 13.447 18.5648 13.5646 18.3707 13.647C18.1767 13.7234 17.9472 13.7646 17.7001 13.7646ZM16.8649 11.7645C16.8178 11.8528 16.7883 11.9528 16.7708 12.0587H18.4178C18.404 11.9362 18.3609 11.819 18.2924 11.7166C18.2237 11.6142 18.1316 11.5298 18.0236 11.4705C17.9001 11.3939 17.759 11.3587 17.5943 11.3587C17.4296 11.3587 17.2824 11.3998 17.1589 11.4705C17.0354 11.5411 16.9355 11.641 16.8649 11.7645ZM9.80604 13.7646C9.5119 13.7646 9.24133 13.7057 9.01193 13.5763C8.78364 13.4495 8.59378 13.2633 8.46232 13.0377C8.33085 12.8121 8.26264 12.5551 8.26486 12.2941C8.25941 12.0322 8.32626 11.774 8.45806 11.5478C8.58987 11.3215 8.7815 11.136 9.01193 11.0117C9.24722 10.8882 9.506 10.8234 9.80604 10.8234C10.1002 10.8234 10.3707 10.8823 10.6002 11.0117C10.8355 11.1352 11.012 11.3058 11.1472 11.5293C11.2766 11.747 11.3473 11.9999 11.3473 12.2941C11.3507 12.5554 11.283 12.8129 11.1514 13.0387C11.0198 13.2646 10.8293 13.4504 10.6002 13.5763C10.3648 13.6998 10.1002 13.7646 9.80604 13.7646ZM9.80604 13.1881C9.97075 13.1881 10.1177 13.1529 10.2472 13.0822C10.3766 13.0116 10.4826 12.9058 10.5531 12.7705C10.6237 12.6351 10.6648 12.4763 10.6648 12.2941C10.6648 12.1057 10.6237 11.941 10.5472 11.8116C10.4767 11.6764 10.3766 11.5763 10.2472 11.4999C10.1117 11.4273 9.95977 11.3908 9.80604 11.3939C9.65451 11.3843 9.5034 11.4185 9.37094 11.4926C9.23836 11.5667 9.13005 11.6775 9.05898 11.8116C8.98839 11.9469 8.94721 12.1057 8.94721 12.2941C8.94721 12.4704 8.98839 12.6351 9.06487 12.7646C9.13526 12.8984 9.2424 13.0094 9.37369 13.0844C9.50504 13.1594 9.65506 13.1954 9.80604 13.1881ZM4.96487 10.8234L6.20017 13.7646H6.90604L8.14133 10.8234H7.49427L6.56486 12.9998L5.66487 10.8234H4.95898H4.96487Z" fill="white"/>
</svg>

<svg xmlns="http://www.w3.org/2000/svg" width="24" height="24" fill="none" viewBox="0 0 24 24">
    <path fill="#fff" fill-rule="evenodd" d="M12 21.412c5.265 0 9.412-4.147 9.412-9.412S17.265 2.588 12 2.588 2.588 6.735 2.588 12 6.735 21.412 12 21.412M12 22a10 10 0 1 0 0-20 10 10 0 0 0 0 20" clip-rule="evenodd"/>
    <path fill="#fff" d="M11.9 10.823v2.942h.688v-2.942zm.041-.5a.45.45 0 0 0 .318.118q.196-.001.312-.118a.4.4 0 0 0 .117-.294.34.34 0 0 0-.117-.27.44.44 0 0 0-.312-.112.45.45 0 0 0-.318.118.37.37 0 0 0-.117.276q0 .168.117.282m2.67 3.442c-.305 0-.576-.06-.817-.189a1.44 1.44 0 0 1-.747-1.282 1.43 1.43 0 0 1 .747-1.282c.236-.124.512-.189.818-.189.276 0 .53.06.741.177q.32.16.488.488l-.517.306a.82.82 0 0 0-.718-.4.95.95 0 0 0-.453.106.76.76 0 0 0-.312.312.96.96 0 0 0-.117.482c0 .182.04.347.117.482a.8.8 0 0 0 .312.306.94.94 0 0 0 .853.012.8.8 0 0 0 .318-.3l.517.294a1.2 1.2 0 0 1-.488.506c-.217.118-.465.17-.747.17zm3.09 0c-.324 0-.607-.06-.848-.189a1.47 1.47 0 0 1-.559-.53 1.47 1.47 0 0 1-.194-.752 1.4 1.4 0 0 1 .718-1.282 1.6 1.6 0 0 1 .776-.189c.283 0 .53.06.753.183.218.117.394.294.518.517.164.3.226.645.176.983h-2.264a.9.9 0 0 0 .105.276.77.77 0 0 0 .336.306q.212.105.494.106.248.001.441-.076a.9.9 0 0 0 .347-.236l.359.412a1.3 1.3 0 0 1-.488.353 1.8 1.8 0 0 1-.67.118m-.836-2a1 1 0 0 0-.094.294h1.647a.77.77 0 0 0-.394-.588.8.8 0 0 0-.43-.112.87.87 0 0 0-.435.111.8.8 0 0 0-.294.294m-7.059 2c-.294 0-.565-.06-.794-.189a1.45 1.45 0 0 1-.747-1.282 1.42 1.42 0 0 1 .747-1.282 1.66 1.66 0 0 1 .794-.189c.294 0 .565.06.794.189.236.123.412.294.547.517.13.218.2.47.2.765a1.44 1.44 0 0 1-.747 1.282q-.353.188-.794.189m0-.577a.9.9 0 0 0 .441-.106.74.74 0 0 0 .306-.312c.07-.135.112-.294.112-.476a.95.95 0 0 0-.118-.482.77.77 0 0 0-.3-.312.9.9 0 0 0-.441-.106.79.79 0 0 0-.747.418 1 1 0 0 0-.112.482c0 .176.041.341.118.47a.79.79 0 0 0 .741.424m-4.841-2.365L6.2 13.765h.706l1.235-2.942h-.647L6.564 13l-.9-2.177H4.96z"/>
</svg>
